static/images/hero/stroke-blue.svg

<svg width="56" height="71" viewBox="0 0 56 71" fill="none" xmlns="http://www.w3.org/2000/svg">
<path d="M21.3119 51.2472C21.3425 51.7164 21.0334 52.3011 21.3235 52.7063C22.1819 53.5004 22.6036 55.0434 23.9557 54.9705C24.8486 55.7989 25.361 57.461 26.7529 57.4308C27.13 57.894 27.5121 58.3633 27.8726 58.8062C28.195 58.8635 28.4879 58.9156 28.7807 58.9675C29.2801 59.5146 29.192 59.7843 30.1779 59.9212C30.6239 60.1826 30.8836 60.5583 31.4668 60.4908C32.2862 61.1006 32.1691 61.6028 33.4435 61.5496C34.1405 61.4111 34.1688 62.0004 34.7336 62.1183C35.2014 62.0383 35.4627 62.3287 35.7224 62.6361C36.2861 62.7683 36.9835 62.6452 37.4844 62.915C37.8012 63.4532 38.3521 63.331 38.8269 63.382C39.2363 63.4258 39.6228 63.4592 39.8427 63.8701C41.0702 64.3986 41.0756 64.3942 41.4973 64.9378C42.382 65.1087 43.2986 65.0322 44.1627 65.3165C44.6579 66.0362 45.4596 65.6651 46.1034 65.8555C46.7069 66.7938 48.132 66.0296 48.689 66.9815C49.8819 67.3044 51.526 66.7924 52.4195 67.739C55.4362 68.7123 55.8158 65.9018 55.2387 69.8459C54.7075 70.4645 53.9365 70.0085 53.2419 70.0418C52.4538 70.5639 51.5575 70.2971 50.6538 70.2022C50.3457 70.1635 50.2575 69.7715 49.9664 69.7115C49.3463 69.5392 47.5477 69.6775 47.358 69.231C47.0854 68.8009 46.5974 69.0631 46.2796 68.8611C45.9812 68.4316 45.5116 68.3681 45.0003 68.2762C44.5481 67.3742 42.2983 68.0097 41.9591 67.4218C41.4601 66.8233 40.8474 67.3877 40.4584 66.5572C39.7034 66.4998 38.8021 66.6027 38.2908 65.9456C37.5614 66.0024 37.3374 65.4311 36.7034 65.3322C36.2991 65.3165 35.8844 65.3025 35.4978 65.2002C35.2363 65.1311 35.1594 64.7259 34.8083 64.7108C34.5052 64.698 34.2031 64.6569 33.901 64.6216C33.2614 64.7475 33.1755 64.1054 32.6102 64.0511C32.4223 64.0607 32.2299 63.9778 32.0396 63.9367C31.7909 63.367 31.1327 63.635 30.7787 63.3274C30.4744 62.8308 29.8244 63.0881 29.5009 62.74C29.247 62.3178 28.8046 62.444 28.4419 62.328C28.0755 61.964 27.7243 61.7523 27.1396 61.7782C26.0361 60.0467 25.897 61.5201 24.7081 59.8031C23.0351 59.9545 22.8932 57.2843 21.2815 57.2893C20.0418 56.4792 20.195 55.3581 18.462 54.8405C17.9129 54.643 17.8133 53.6719 17.102 53.8912C16.8045 54.2469 16.423 54.2495 16.0105 54.1725C15.7054 54.0769 15.5304 54.5108 15.2375 54.5167C13.488 54.1967 11.4616 54.5569 10.0157 53.5589C9.46164 53.4338 8.70287 53.6611 8.32638 53.1463C8.05019 52.6846 7.35731 53.0916 7.04866 52.5542C5.94678 50.7467 3.6082 49.3392 3.46754 47.1844C3.04072 46.528 2.18533 46.0269 2.48705 45.1336C2.21479 44.6947 2.06226 44.2929 2.19028 43.7563C1.7245 42.9344 1.31853 43.0034 1.51068 41.9126C1.42679 41.6474 1.066 41.5072 1.16624 41.1334C1.21685 40.9449 1.2631 40.7089 1.1927 40.5455C0.824338 40.1694 0.873885 39.6888 0.881385 39.1725C0.52185 38.8722 0.555258 38.4821 0.620395 38.0768C-0.038053 36.8431 0.612315 35.3498 0.61501 33.9789C0.649631 33.598 0.811958 33.2008 0.461789 32.85C0.147087 32.2583 0.683502 30.1673 0.676824 29.2703C0.339131 28.9788 0.192243 28.6358 0.36088 28.2027C0.477273 27.7675 -0.107293 27.5933 0.0176576 27.1216C0.468389 23.4172 0.78362 19.6604 1.19721 15.9461C2.28811 15.1358 1.35349 13.334 2.41794 12.4506C2.69873 11.4876 2.24563 10.2037 3.1922 9.58439C3.40741 8.6347 2.99932 7.21687 3.99036 6.58488C4.38903 6.32122 4.36756 6.28763 4.40922 5.85783C4.40159 4.96779 4.63383 4.30273 5.43389 3.85567C5.48051 3.56164 5.52737 3.26745 5.57513 2.96465C6.67036 2.07307 7.77083 1.17723 8.87601 0.277557C9.16607 0.295151 9.46473 0.313179 9.76342 0.331209C10.213 -0.21933 10.8477 0.0784889 11.4955 0.0962396C11.7378 0.488164 12.6121 1.04303 12.1114 1.54569C10.9379 2.51477 9.76677 3.48734 8.56773 4.42414C8.14475 4.75472 7.84581 5.09978 7.88947 5.66003C7.54752 6.04758 7.29313 6.39409 7.31559 6.94961C7.27394 7.1249 6.9832 7.22648 6.90902 7.36423C6.82333 7.87544 6.83914 8.37194 6.29898 8.63454C6.25604 8.93067 6.21308 9.22682 6.17014 9.52295C5.30236 10.0915 5.73491 11.4353 5.45605 12.3339C4.21033 13.6508 5.28554 16.0298 4.20364 17.4062C3.93494 17.8609 3.80138 18.6385 4.15007 19.0765C4.42477 19.4106 4.39668 19.5367 4.08381 19.8366C3.20101 21.6966 3.56107 24.2588 3.14976 26.3539C3.7988 27.4778 3.20983 28.881 3.1771 30.1487C3.12401 30.4924 3.46775 30.6485 3.52126 30.9242C3.55806 31.1146 3.47634 31.3249 3.47248 31.5268C3.46504 31.9173 3.27996 32.3083 3.46772 32.6987C3.99244 33.1831 3.40545 33.8604 3.97995 34.3019C4.09601 35.4902 3.60495 36.6962 3.75978 37.8827C4.12436 38.1888 4.04323 38.5875 3.99777 38.9851C3.99605 39.281 4.38805 39.4568 4.34357 39.7573C4.34543 40.5319 4.33072 40.5443 4.80139 41.0813C5.34315 41.921 4.66472 43.0502 4.81164 44.0001C5.48683 45.1145 6.64296 45.5099 6.62287 46.9813C7.05978 48.0474 8.12183 48.874 8.78397 49.8471C9.024 50.1434 9.02267 50.1437 10.0067 50.5362C10.7859 50.9281 11.2276 52.757 12.2332 51.6237C13.342 51.7359 14.4509 51.8477 15.5595 51.9597C17.3931 50.8574 13.6749 49.5715 14.2893 48.0762C14.5726 47.0723 14.0705 46.6287 13.485 45.9797C13.0126 45.4873 13.583 44.7877 12.9719 44.3728C13.0279 43.8532 13.1116 43.3773 12.6552 43.0184C12.7048 42.204 12.987 41.3981 12.4617 40.7185C12.6816 38.6069 12.9011 36.4954 13.1172 34.4174C13.6824 33.9 14.0458 33.9207 14.1269 32.9969C14.178 32.6726 14.5323 32.5789 14.6253 32.308C14.7173 30.8793 16.5312 30.332 17.4219 29.3406C17.5687 29.2195 17.6119 29.0171 17.5934 28.7969C17.7121 27.9305 18.863 27.5085 19.448 26.9298C20.6592 27.0662 21.3124 26.126 22.2265 25.4353C22.5248 25.4466 22.8231 25.4579 23.1458 25.4701C23.6161 25.1246 24.0081 24.5117 24.6691 24.7764C25.3866 24.8976 25.7954 23.4801 26.4327 24.2515C26.749 24.7905 27.3447 24.3841 27.7185 24.837C28.0787 25.3246 28.456 25.8045 28.87 26.2459C29.3064 26.825 28.7168 27.338 29.3687 27.8634C29.449 29.389 28.4796 31.2762 29.3076 32.6084C29.1861 33.7767 29.0489 34.9818 28.9424 36.1894C28.1572 37.2194 28.2505 38.6048 28.1341 39.8975C28.1582 40.3829 27.5905 40.4476 27.5717 40.8867C27.5506 41.3862 27.4545 41.8827 27.3906 42.3805C26.8914 42.6344 26.9257 43.1638 26.7896 43.6532C26.1231 43.9653 26.5752 44.7998 25.9531 45.1185C25.4591 45.3914 25.2825 45.8133 25.2753 46.3513C25.1863 46.6256 24.8288 46.7163 24.7761 47.0396C24.722 48.4257 23.0258 48.2984 23.2046 49.7041C22.5759 50.2183 21.9461 50.731 21.3119 51.2472ZM15.8013 37.7214C15.8249 38.4442 15.4056 39.3711 15.7311 40.0396C16.1686 40.5746 15.7456 41.4205 15.7853 42.0712C15.7682 42.4523 15.578 42.8511 15.9344 43.1979C16.2828 43.6158 15.7538 44.1736 16.2591 44.5611C16.9282 45.0125 16.7539 46.4092 17.1616 46.626C17.669 47.5145 18.973 48.2372 18.9162 49.3112C18.84 49.5834 18.8799 49.7065 19.095 49.7254C19.8447 49.577 20.3721 48.7446 21.028 48.3474C21.4222 48.0163 21.0754 47.3493 21.6215 47.0693C22.4677 46.7796 22.0544 45.8568 22.6914 45.414C22.7579 45.3757 22.7896 45.254 22.8097 45.1645C22.8 44.1364 23.8861 44.1356 23.8751 43.1925C23.8037 42.8049 24.1837 42.7151 24.3545 42.4944C24.5513 41.7407 24.3276 40.8078 25.0468 40.3147C25.0888 39.9124 25.1802 39.5074 25.1592 39.1085C25.1347 38.6376 25.6543 38.4891 25.6963 38.1202C25.8042 35.4521 26.7644 32.6541 26.0936 30.1061C26.126 29.2676 26.654 28.1641 25.9656 27.5216C25.2653 27.4409 24.565 27.3606 23.8754 27.2814C23.3481 27.5928 22.9229 28.0285 22.4378 28.3974C22.1402 28.3871 21.8429 28.3766 21.5149 28.3651C21.0624 28.7335 20.5853 29.1219 20.1295 29.493C20.087 29.7887 20.0446 30.0844 20 30.3921C19.2234 31.0243 18.44 31.6621 17.6629 32.2946C17.6758 32.8713 17.5191 33.2329 17.1019 33.5957C17.0302 33.975 17.0752 34.3618 16.6957 34.662C16.0383 35.5036 16.8453 37.0848 15.8013 37.7214Z" fill="#0BA6E2"/>
</svg>

<svg xmlns="http://www.w3.org/2000/svg" width="56" height="71" fill="none" viewBox="0 0 56 71"><path fill="#0ba6e2" d="M21.312 51.247c.03.47-.279 1.054.011 1.46.859.793 1.28 2.336 2.633 2.264.893.828 1.405 2.49 2.797 2.46l1.12 1.375.908.162c.5.547.411.816 1.397.953.446.262.706.637 1.289.57.82.61.702 1.112 1.977 1.059.697-.139.725.45 1.29.568.467-.08.729.21.988.518.564.132 1.261.01 1.762.279.317.538.868.416 1.343.467.41.044.796.077 1.016.488 1.227.529 1.233.524 1.654 1.068.885.17 1.802.094 2.666.379.495.72 1.297.348 1.94.539.604.938 2.029.174 2.586 1.126 1.193.322 2.837-.19 3.73.757 3.017.973 3.397-1.837 2.82 2.107-.531.618-1.302.162-1.997.196-.788.522-1.684.255-2.588.16-.308-.038-.397-.43-.688-.49-.62-.173-2.418-.035-2.608-.481-.273-.43-.76-.168-1.078-.37-.299-.43-.768-.493-1.28-.585-.452-.902-2.702-.266-3.04-.854-.5-.599-1.113-.034-1.502-.865-.755-.057-1.656.046-2.167-.611-.73.056-.954-.515-1.588-.614-.404-.015-.819-.03-1.205-.132-.262-.069-.339-.474-.69-.49-.303-.012-.605-.053-.907-.088-.64.126-.726-.517-1.29-.57-.189.009-.381-.074-.571-.115-.25-.57-.907-.302-1.261-.61-.305-.496-.955-.239-1.278-.587-.254-.422-.696-.296-1.06-.412-.365-.364-.717-.576-1.301-.55-1.104-1.731-1.243-.258-2.432-1.975-1.673.152-1.815-2.519-3.426-2.514-1.24-.81-1.087-1.93-2.82-2.449-.55-.197-.649-1.168-1.36-.949-.297.356-.679.358-1.091.282-.306-.096-.48.338-.773.344-1.75-.32-3.776.04-5.222-.958-.554-.125-1.313.102-1.69-.413-.276-.461-.969-.054-1.277-.592-1.102-1.807-3.44-3.215-3.581-5.37-.427-.656-1.283-1.157-.981-2.05-.272-.44-.425-.841-.297-1.378-.465-.822-.871-.753-.68-1.843-.083-.266-.444-.406-.344-.78.05-.188.097-.424.027-.588-.369-.376-.32-.856-.312-1.373-.36-.3-.326-.69-.26-1.095-.66-1.234-.009-2.727-.006-4.098.035-.381.197-.778-.153-1.129-.315-.592.222-2.683.215-3.58-.338-.291-.485-.634-.316-1.067.116-.436-.468-.61-.343-1.081.45-3.705.766-7.462 1.18-11.176 1.09-.81.155-2.612 1.22-3.495.28-.963-.172-2.247.774-2.867.215-.95-.193-2.367.798-3 .399-.263.378-.296.42-.726-.008-.89.224-1.555 1.024-2.002l.141-.891L8.876.278l.887.053c.45-.55 1.085-.253 1.733-.235.242.392 1.116.947.615 1.45-1.173.969-2.344 1.941-3.543 2.878-.423.33-.722.676-.679 1.236-.341.388-.596.734-.573 1.29-.042.175-.333.276-.407.414-.086.511-.07 1.008-.61 1.27l-.129.889c-.868.569-.435 1.912-.714 2.81-1.246 1.318-.17 3.697-1.252 5.073-.27.455-.403 1.233-.054 1.67.275.335.247.46-.066.76-.883 1.86-.523 4.423-.934 6.518.649 1.124.06 2.527.027 3.795-.053.343.29.5.344.775.037.19-.045.4-.049.603-.007.39-.192.781-.004 1.172.524.484-.063 1.161.512 1.603.116 1.188-.375 2.394-.22 3.58.364.307.283.706.238 1.103-.002.296.39.472.346.772.001.775-.013.787.457 1.324.542.84-.136 1.97.01 2.92.676 1.114 1.832 1.509 1.812 2.98.437 1.066 1.499 1.893 2.161 2.866.24.296.239.297 1.223.69.779.391 1.22 2.22 2.226 1.087l3.326.336c1.834-1.103-1.884-2.389-1.27-3.884.284-1.004-.219-1.447-.804-2.096-.472-.493.098-1.192-.513-1.607.056-.52.14-.996-.317-1.355.05-.814.332-1.62-.193-2.3l.655-6.3c.565-.518.929-.497 1.01-1.421.051-.324.405-.418.498-.689.092-1.429 1.906-1.976 2.797-2.967.147-.122.19-.324.171-.544.12-.867 1.27-1.288 1.855-1.867 1.211.136 1.864-.804 2.779-1.495l.919.035c.47-.345.862-.958 1.523-.694.718.122 1.126-1.296 1.764-.524.316.539.912.132 1.285.585.36.488.738.968 1.152 1.409.436.579-.153 1.092.499 1.617.08 1.526-.89 3.413-.061 4.745-.122 1.169-.26 2.374-.366 3.581-.785 1.03-.692 2.416-.808 3.709.024.485-.544.55-.562.989-.021.5-.117.996-.181 1.493-.5.254-.465.784-.601 1.273-.667.312-.215 1.147-.837 1.465-.494.273-.67.695-.678 1.233-.089.275-.446.365-.499.689-.054 1.386-1.75 1.258-1.571 2.664zm-5.51-13.526c.023.723-.396 1.65-.07 2.319.437.535.014 1.38.053 2.031-.017.381-.207.78.15 1.127.348.418-.181.976.324 1.363.67.452.495 1.848.903 2.065.507.889 1.811 1.611 1.754 2.685-.076.272-.036.395.179.414.75-.148 1.277-.98 1.933-1.378.394-.33.047-.998.594-1.278.846-.29.432-1.212 1.07-1.655.066-.038.098-.16.118-.25-.01-1.028 1.076-1.028 1.065-1.971-.071-.388.309-.478.48-.699.196-.753-.027-1.686.692-2.18.042-.402.133-.807.112-1.206-.024-.47.495-.619.537-.988.108-2.668 1.068-5.466.398-8.014.032-.838.56-1.942-.128-2.584l-2.09-.24c-.528.31-.953.747-1.438 1.115l-.923-.032-1.386 1.128-.129.9c-.777.631-1.56 1.27-2.337 1.902.013.576-.144.938-.561 1.3-.072.38-.027.767-.406 1.067-.658.842.15 2.423-.895 3.06"/></svg>
